X:1
T:Get Close to Jesus
T:Get Close to Jesus
T:Alice Larry Woodcock
T:Alice Larry Woodcock, 1922
T:Public Domain Courtesy of the Cyber Hymnal™
T:Public Domain Courtesy of the Cyber Hymnal™
C:Alice Larry Woodcock
Z:Public Domain
Z:Courtesy of the Cyber Hymnal™
%%score ( 1 2 ) ( 3 4 )
L:1/8
Q:1/4=80
M:4/4
K:G
V:1 treble 
V:2 treble 
V:3 bass 
V:4 bass 
V:1
 [B,D] [Dd]2 [CF] AG[G,B,][A,C] | [B,D]2 [CD]2 D4 | D [DFc]2 [D-^G] BAEF | A2 G2 [B,D]4 | %4
w: 1.~When- e’er your tri- als are too|hard for you,|Bur- dens are hea- vy, and your|friends seem few,|
w: 2.~He is the friend a- bove all|o- thers rare;|E- ven the spar- row is with-|in His care;|
w: 3.~So for to- mor- row and its|needs ne’er fear;|Leave all to Him, have faith, be|of good cheer;|
 D [DGd]2 [DB] GGAB | d2 c2 G2 [_EA]2 | BB[Ec][DB] [^CE]2 [=CA]2 | [B,G]6 z2 || %8
w: Go to your Sav- ior, kneel to|Him in prayer, He’ll|hear you, for He’s al- ways|there.|
w: Much more to you will He His|love be- stow If|to Him you will on- ly|go.|
w: Then go and help some o- thers’|cross to bear, And|tell them of His won- drous|care.|
"^Refrain" [B,D] [B,E]2 [B,F] [B,G] [B,E]2 [B,G] | [CF]2 [CA]2 [CE]4 | %10
w: ||
w: Get close to Je- sus, He’s|your best friend;|
w: ||
 [CF] [CF]2 [CG] [CA] [CF]2 D | [Dd]2 [Dc]2 [DB]3 [DB] | [Gd]2 [Ad]2 [Gd] [DB]2 [=FB] | %13
w: |||
w: Get close to Je- sus, He’ll|com- fort send; In|times of tri- al, in|
w: |||
 [Ec]2 [Ec]2 [CE]3 [^CG] | [CF]2 [CF]2 [CF] [CE]2 [CD] | [Ec]2 [DB]2 [B,G]4 |] %16
w: |||
w: times of fear, Get|close to Je- sus, He’s|al- ways near.|
w: |||
V:2
 x4 B,2 x2 | x4 D4 | D x2 D2 C2 x | B,4 x4 | D x2 =F4 x | _E6 x2 | D2 x6 | x8 || x8 | x8 | x7 D | %11
 x8 | x8 | x8 | x8 | x8 |] %16
V:3
 [G,,G,]4 [G,,D,]4 | [G,,G,]2 [A,,F,]2 [B,,G,]4 | [A,,F,] A,2 ^E, [D,-F,]2 [D,A,]2 | %3
 G,2 D,2 [G,,G,]4 | B,3 G, B,3 G, | G,4 C2 G,2 | [D,G,]4 [G,A,]2 [D,F,]2 | [G,,D,]6 z2 || %8
 [G,,G,] [G,,G,]2 [G,,G,] [G,,D,] [G,,G,]2 [G,,D,] | [A,,D,]2 [D,F,]2 [D,F,]4 | %10
 [D,A,] [D,A,]2 [D,E,] [D,F,] [D,A,]2 [C,A,] | [B,,G,]2 [A,,F,]2 [A,,G,]3 G, | %12
 [G,B,]2 [G,C]2 [G,B,] G,2 G, | [C,G,]2 [C,G,]2 [C,G,]3 [E,A,] | %14
 [D,A,]2 [D,A,]2 [D,A,] [D,G,]2 [D,F,] | [D,F,]2 [D,F,]2 [G,,D,G,]4 |] %16
V:4
 x8 | x8 | x D,3 x4 | G,,4 x4 | G,4 G,4 | C,8 | x8 | x8 || x8 | x8 | x8 | x7 G, | x5 G,2 G, | x8 | %14
 x8 | x8 |] %16

